X: 2170
T: Auld Pipe, The
R: reel
M: 4/4
K: Amixolydian
|:e|A2A2 GAAB|e2de gede|a2ea gedB|A2A2 BGGB|
A2A2 GAAB|e2de gede|a2ea gedB|A2A2 GAA:|
|:e|a2ea gede|a2ea geef|g2e<a e>dB<e|A2A2 BGGB|
A2A2 GAAB|e2de gede|a2ea gedB|A2A2 GAA:|

